assets/img/braze_icons/edit-02.svg

<svg fill="none" height="24" viewBox="0 0 24 24" width="24" xmlns="http://www.w3.org/2000/svg"><g fill="#801ed7"><path d="m21.7071 2.29289c-1.4951-1.495092-3.9191-1.495094-5.4142 0l-1.1615 1.16152c-.396.39602-.5941.59403-.6682.82236-.0653.20084-.0653.41719 0 .61803.0741.22833.2722.42634.6682.82236l3.1514 3.15147c.3961.39601.5941.59402.8224.66821.2008.06526.4172.06526.618 0 .2284-.07419.4264-.2722.8224-.66821l1.1615-1.16152c1.4951-1.4951 1.4951-3.91912 0-5.41422z"/><path d="m16.8686 12.5456c.396-.396.5941-.594.6682-.8224.0653-.2008.0653-.4172 0-.618-.0741-.2283-.2722-.4263-.6682-.8224l-3.1514-3.15144c-.3961-.39601-.5941-.59402-.8224-.66821-.2008-.06526-.4172-.06526-.618 0-.2284.07419-.4264.27219-.8224.66821l-8.4177 8.41764c-.24529.2449-.46166.4609-.63091.7176-.14881.2257-.26644.4704-.34969.7276-.09469.2925-.12821.5964-.16621.9409l-.3838 3.4545c-.03354.3019.07197.6027.28678.8175s.51561.3203.81754.2868l3.4545-.3838c.34451-.038.64841-.0715.9409-.1662.25717-.0833.5019-.2009.72756-.3497.25668-.1693.4727-.3856.7176-.6309z"/></g></svg>

<svg width="24" height="24" viewBox="0 0 24 24" fill="none" xmlns="http://www.w3.org/2000/svg">
<path d="M21.7071 2.29289C20.212 0.797798 17.788 0.797796 16.2929 2.29289L15.1314 3.45441C14.7354 3.85043 14.5373 4.04844 14.4632 4.27677C14.3979 4.47761 14.3979 4.69396 14.4632 4.8948C14.5373 5.12313 14.7354 5.32114 15.1314 5.71716L18.2828 8.86863C18.6789 9.26464 18.8769 9.46265 19.1052 9.53684C19.306 9.6021 19.5224 9.6021 19.7232 9.53684C19.9516 9.46265 20.1496 9.26464 20.5456 8.86863L21.7071 7.70711C23.2022 6.21201 23.2022 3.78799 21.7071 2.29289Z" fill="#801ED7"/>
<path d="M16.8686 12.5456C17.2646 12.1496 17.4627 11.9516 17.5368 11.7232C17.6021 11.5224 17.6021 11.306 17.5368 11.1052C17.4627 10.8769 17.2646 10.6789 16.8686 10.2828L13.7172 7.13136C13.3211 6.73535 13.1231 6.53734 12.8948 6.46315C12.694 6.39789 12.4776 6.39789 12.2768 6.46315C12.0484 6.53734 11.8504 6.73534 11.4544 7.13136L3.0367 15.549C2.79141 15.7939 2.57504 16.0099 2.40579 16.2666C2.25698 16.4923 2.13935 16.737 2.0561 16.9942C1.96141 17.2867 1.92789 17.5906 1.88989 17.9351L1.50609 21.3896C1.47255 21.6915 1.57806 21.9923 1.79287 22.2071C2.00768 22.4219 2.30848 22.5274 2.61041 22.4939L6.06491 22.1101C6.40942 22.0721 6.71332 22.0386 7.00581 21.9439C7.26298 21.8606 7.50771 21.743 7.73337 21.5942C7.99005 21.4249 8.20607 21.2086 8.45097 20.9633L16.8686 12.5456Z" fill="#801ED7"/>
</svg>
